assets/codropsicons-96f3c2ff.svg

<?xml version="1.0" standalone="no"?>
<!DOCTYPE svg PUBLIC "-//W3C//DTD SVG 1.1//EN" "http://www.w3.org/Graphics/SVG/1.1/DTD/svg11.dtd" >
<svg xmlns="http://www.w3.org/2000/svg">
<metadata>
This is a custom SVG font generated by IcoMoon.
<iconset grid="14"></iconset>
</metadata>
<defs>
<font id="codropsicons" horiz-adv-x="448" >
<font-face units-per-em="448" ascent="384" descent="-64" />
<missing-glyph horiz-adv-x="448" />
<glyph unicode="&#xe001;" d="M 221.657,359.485 ,m0.00,0.00,c 0.00,0.00 -132.984-182.838 -132.205-286.236 0.515-68.522 61.089-123.688 135.314-123.218 74.202,0.479 133.943,56.421 133.428,124.943 C 357.414,178.368 221.657,359.485 221.657,359.485 z"  />
<glyph unicode="&#xe004;" d="M 384.00,160.00l0.00-32.00 q0.00-13.25 -8.125-22.625t-21.125-9.375l-176.00,0.00 l 73.25-73.50q 9.50-9.00 9.50-22.50t-9.50-22.50l-18.75-19.00q-9.25-9.25 -22.50-9.25q-13.00,0.00 -22.75,9.25l-162.75,163.00q-9.25,9.25 -9.25,22.50q0.00,13.00 9.25,22.75l 162.75,162.50q 9.50,9.50 22.75,9.50q 13.00,0.00 22.50-9.50l 18.75-18.50q 9.50-9.50 9.50-22.75t-9.50-22.75l-73.25-73.25l 176.00,0.00 q 13.00,0.00 21.125-9.375 t 8.125-22.625z" horiz-adv-x="384"  />
<glyph unicode="&#xe002;" d="M 407.273-23.273c0.00,0.00-325.818,0.00-366.545,0.00s-40.727,40.727-40.727,40.727l0.00,142.545 l 101.818,183.273l 244.364,0.00 l 101.818-183.273c0.00,0.00,0.00-101.818,0.00-142.545S 407.273-23.273, 407.273-23.273z M 325.818,302.545L 122.182,302.545 
	l-71.273-142.545L 142.545,160.00 c0.00,0.00, 40.727,0.00, 40.727-40.727l0.00-20.364 l 81.455,0.00 l0.00,20.364 c0.00,0.00,0.00,40.727, 40.727,40.727l 91.636,0.00 L 325.818,302.545z M 407.273,119.273l-96.911,0.00 C 307.532,113.917, 305.455,107.503, 305.455,98.909c0.00-40.727-40.727-40.727-40.727-40.727L 183.273,58.182 c0.00,0.00-40.727,0.00-40.727,40.727
	c0.00,8.593-2.077,15.008-4.908,20.364L 40.727,119.273 l0.00-101.818 l 366.545,0.00 L 407.273,119.273 z M 132.364,221.091l 183.273,0.00 L 325.818,200.727L 122.182,200.727 L 132.364,221.091z M 152.727,261.818l 142.545,0.00 L 305.455,241.455L 142.545,241.455 L 152.727,261.818z"  />
<glyph unicode="&#xe000;" d="M 368.00,144.00q0.00-13.50 -9.25-22.75l-162.75-162.75q-9.75-9.25 -22.75-9.25q-12.75,0.00 -22.50,9.25l-18.75,18.75q-9.50,9.50 -9.50,22.75t 9.50,22.75l 73.25,73.25l-176.00,0.00 q-13.00,0.00 -21.125,9.375t-8.125,22.625l0.00,32.00 q0.00,13.25 8.125,22.625t 21.125,9.375l 176.00,0.00 l-73.25,73.50q-9.50,9.00 -9.50,22.50t 9.50,22.50l 18.75,18.75q 9.50,9.50 22.50,9.50q 13.25,0.00 22.75-9.50l 162.75-162.75q 9.25-8.75 9.25-22.50z" horiz-adv-x="384"  />
<glyph unicode="&#xe003;" d="M 224.00-64.00C 100.291-64.00,0.00,36.291,0.00,160.00S 100.291,384.00, 224.00,384.00s 224.00-100.291, 224.00-224.00S 347.709-64.00, 224.00-64.00z
	 M 224.00,343.273c-101.228,0.00-183.273-82.045-183.273-183.273s 82.045-183.273, 183.273-183.273s 183.273,82.045, 183.273,183.273S 325.228,343.273, 224.00,343.273z M 244.364,122.164C 244.364,111.005, 244.364,98.909, 244.364,98.909l-40.727,0.00 c0.00,0.00,0.00,29.466,0.00,40.727
	s 9.123,20.364, 20.364,20.364l0.00,0.00c 22.481,0.00, 40.727,18.246, 40.727,40.727s-18.246,40.727-40.727,40.727S 183.273,223.209, 183.273,200.727c0.00-7.453, 2.138-14.356, 5.641-20.364L 145.437,180.364 C 143.727,186.90, 142.545,193.661, 142.545,200.727
	c0.00,44.983, 36.471,81.455, 81.455,81.455s 81.455-36.471, 81.455-81.455C 305.455,162.831, 279.45,131.247, 244.364,122.164z M 244.364,37.818l-40.727,0.00 l0.00,40.727 l 40.727,0.00 L 244.364,37.818 z"  />
<glyph unicode="&#x20;" horiz-adv-x="224" />
<glyph class="hidden" unicode="&#xf000;" d="M0,384L 448 -64L0 -64 z" horiz-adv-x="0" />
</font></defs></svg>

<svg xmlns="http://www.w3.org/2000/svg"><defs><font id="codropsicons" horiz-adv-x="448"><font-face ascent="384" descent="-64" units-per-em="448"/><glyph d="M221.657 359.485" unicode=""/><glyph d="M384 160v-32q0-13.25-8.125-22.625T354.75 96h-176L252 22.5q9.5-9 9.5-22.5T252-22.5l-18.75-19q-9.25-9.25-22.5-9.25-13 0-22.75 9.25l-162.75 163Q16 130.75 16 144q0 13 9.25 22.75L188 329.25q9.5 9.5 22.75 9.5 13 0 22.5-9.5l18.75-18.5q9.5-9.5 9.5-22.75t-9.5-22.75L178.75 192h176q13 0 21.125-9.375T384 160z" horiz-adv-x="384" unicode=""/><glyph d="M407.273-23.273H40.728C.001-23.273.001 17.454.001 17.454v142.545l101.818 183.273h244.364l101.818-183.273V17.454c0-40.727-40.728-40.727-40.728-40.727zm-81.455 325.818H122.182L50.909 160h91.636s40.727 0 40.727-40.727V98.909h81.455v20.364s0 40.727 40.727 40.727h91.636l-71.272 142.545zm81.455-183.272h-96.911c-2.83-5.356-4.907-11.77-4.907-20.364 0-40.727-40.727-40.727-40.727-40.727h-81.455s-40.727 0-40.727 40.727c0 8.593-2.077 15.008-4.908 20.364H40.727V17.455h366.545l.001 101.818zM132.364 221.091h183.273l10.181-20.364H122.182l10.182 20.364zm20.363 40.727h142.545l10.183-20.363h-162.91l10.182 20.363z" unicode=""/><glyph d="M368 144q0-13.5-9.25-22.75L196-41.5q-9.75-9.25-22.75-9.25-12.75 0-22.5 9.25L132-22.75q-9.5 9.5-9.5 22.75t9.5 22.75L205.25 96h-176q-13 0-21.125 9.375T0 128v32q0 13.25 8.125 22.625T29.25 192h176L132 265.5q-9.5 9-9.5 22.5t9.5 22.5l18.75 18.75q9.5 9.5 22.5 9.5 13.25 0 22.75-9.5L358.75 166.5Q368 157.75 368 144z" horiz-adv-x="384" unicode=""/><glyph d="M224-64C100.291-64 0 36.291 0 160s100.291 224 224 224 224-100.291 224-224S347.709-64 224-64zm0 407.273c-101.228 0-183.273-82.045-183.273-183.273S122.772-23.273 224-23.273 407.273 58.772 407.273 160 325.228 343.273 224 343.273zm20.364-221.109V98.909h-40.727v40.727c0 11.261 9.123 20.364 20.364 20.364 22.481 0 40.727 18.246 40.727 40.727s-18.246 40.727-40.727 40.727-40.728-18.245-40.728-40.727c0-7.453 2.138-14.356 5.641-20.364l-43.477.001c-1.71 6.536-2.892 13.297-2.892 20.363 0 44.983 36.471 81.455 81.455 81.455s81.455-36.471 81.455-81.455c0-37.896-26.005-69.48-61.091-78.563zm0-84.346h-40.727v40.727h40.727V37.818z" unicode=""/><glyph horiz-adv-x="224"/><glyph d="M0 384 448-64H0z" class="hidden" horiz-adv-x="0" unicode=""/></font></defs></svg>
